X: 787
T: Gel Ey Güzeller Serveri
C: Dede Efendi
O: Turkey
F: http://compmusic.upf.edu/node/140
N: evcara--sarki--aksak--gel_ey--dede_efendi
N: makam= evcara
N: form= sarki
N: usul= aksak = 9/8
M: 9/8
L: 1/16
K: C _1/4B ^f ^c ^A
Q: 1/4=150
%%MIDI tuningsystem comma53
f2g2 =a4 f4 g2f2 ^e2 | d2 ^e2f4d4d2 c2B2  | \
w:  ARANAĞME  |   | 
c2d2 ^e2f2 g2=a2 g4 f2 | 
w:   | 
b4=a2 g2f2 ^e2f4z2  | f2g2 =a4 f4 g2f2 ^e2 | \
w:   |   | 
d2 ^e2f4d4d2 c2B2  | 
w:   | 
A2B2 c2d2 c2B2 A4 B2 | c3BA2 G2F4f4z2  | \
w:   |   | 
f2g2 =a4 f4 g2f2 ^e2 | 
w:  ARANAĞME  | 
d2 ^e2f4d4d2 c2B2  | c2d2 ^e2f2 g2=a2 g4 f2 | \
w:   |   | 
b4=a2 g2f2 ^e2f4z2  | 
w:   | 
f2g2 =a4 f4 g2f2 ^e2 | d2 ^e2f4d4d2 c2B2  | \
w:   |   | 
A2B2 c2d2 c2B2 A4 B2 | 
w:   | 
c3BA2 G2F8z2  | g3f ^e2g2 f2e2 f4 z2 | \
w:   |  Gel  *  *  *  ey   | 
=a8a2 ^g2f2 ^e2d2  | c2d2 ^e2f2 g4 f4 e2 | 
w:  gü zel  |  ler  *  *  *  ser  | 
b4=a2 g2ag f^ef4z2  | g3f ^e2g2 f2e2 f4 z2 | \
w:  ve ri  *  ah    |  Gel  *  *  *  ey   | 
=a8a2 ^g2f2 ^e2d2  | 
w:  gü zel  | 
c2d2 ^e2f2 g4 f4 e2 | b4=a2 g2ag f^ef4z2  | \
w:  ler  *  *  *  ser  |  ve ri  *  ah    | 
g8 f2^e2 d4 c2 | 
w:  Fer ya  | 
g8g2 f2^e2 d2c2  | c2d2 ^e2f2 g4 f4 e2 | \
w:  dım  ef  |  lâ *  *  *  ke   | 
^e2 d4 c2cB ABc6  | 
w:  çı *  *  kar    | 
z4 c4 d2c2 B2A2 B2 | c2 d2^e2 f2e2 d2c2 B2A2  | \
w:  Fer ya  |  dım  *  *  *  ef  | 
F2G2 A2B2 =c4 B4 A2 | 
w:  lâ *  *  *  ke   | 
A2 G4 F2F8z2  | F6A2 G2F2 G4 A2 | B3AG2 A2Bc BAB6  | \
w:  çı *  *  kar    |  Gön *  lüm   |  ce *  *  *  *  *  *  *  ma  | 
c3B A2B2 c4 d4 c2 | 
w:  lin  *  *  *  gö  | 
c2 B4 d2c2 B2A4G2  | F6A2 G2F2 G4 A2 | \
w:  re *  li  ah    |  Gön *  lüm   | 
B3AG2 A2Bc BAB6  | 
w:  ce *  *  *  *  *  *  *  ma  | 
c3B A2B2 c4 d4 ^e2 | f3^ed2 e2fg fef4z2  | \
w:  lin  *  *  *  gö  |  re *  *  li  ah    | 
g8 f2^e2 d4 c2 | 
w:  Bir  yer  | 
g8g2 f2^e2 d2c2  | c2d2 ^e2f2 g4 f4 e2 | \
w:  de  hiç   |  et *  *  *  mez   | 
^e2 d4 c2cB ABc6  | 
w:  ka *  *  rar    | 
z4 c4 d2c2 B2A2 B2 | c2 d2^e2 f2e2 d2c2 B2A2  | \
w:  Bir  yer  |  de  *  *  *  hiç   | 
F2G2 A2B2 =c4 B4 A2 | 
w:  et *  *  *  mez   | 
A2 G4 F2F8z2  | z4 B4 B8 c2 | d3cB2 A2B8z2  | \
w:  ka *  *  rar    |  A man   |  a *  *  *  man   | 
c2B2 A2B2 c4 d4 c2 | 
w:  ca *  *  *  nım   | 
c2 B4 d2c2 B2A6  | z4 f4 _1/4e8 e2 | \
w:  a *  *  man    |  Bir  yer  | 
_1/4e2 g2f2 e2d2 c2B2 A2G2  | F2G2 A2B2 =c4 B4 A2 | 
w:  de  *  *  *  hiç   |  et *  *  *  mez   | 
A3GG3FF8z2  | |


